X: 922
T: The Humors of Winter.
B:O'Neill's 922
N:"collected by Mahoney."
Z:Transcribed by Tom Keays (htkeays@mailbox.syr.edu)
Z:abc 1.6
M:6/8
R:Jig
L:1/8
K:G
F | GAG GBd | gfe dBG | cde dfg | abg fed |
GAG GBd | gfe dBG | cde dgB | dcA G2 :|
|| B | BcB Bef | gfe e^de | fdB fdB | ge^d eBG |
BcB Bef | gfe e^de | fgf Bgf | e3 d2 :|


